packages/symbols/svgs/solid/house-solid.svg

<svg width="16" height="16" viewBox="0 0 16 16" fill="none" xmlns="http://www.w3.org/2000/svg">
<g clip-path="url(#clip0_230_310)">
<path d="M11 16H13C13.6 16 14 15.6 14 15V8H15C15.3 8 15.6 7.9 15.8 7.7C16.2 7.3 16.1 6.7 15.7 6.3L8.69999 0.299997C8.29999 -3.05474e-06 7.79999 -3.05474e-06 7.39999 0.299997L0.399989 6.3C-1.11163e-05 6.7 -0.100011 7.3 0.299989 7.7C0.399989 7.9 0.699989 8 0.999989 8C1.19999 8 1.99999 8 1.99999 8V15C1.99999 15.6 2.39999 16 2.99999 16H4.99999C5.59999 16 5.99999 15.6 5.99999 15V12H9.99999V15C9.99999 15.6 10.4 16 11 16Z" fill="black"/>
</g>
<defs>
<clipPath id="clip0_230_310">
<rect width="16" height="16" fill="white"/>
</clipPath>
</defs>
</svg>

<svg width="16" height="16" viewBox="0 0 16 16" xmlns="http://www.w3.org/2000/svg"><g clip-path="url(#a)"><path d="M11 16h2c.6 0 1-.4 1-1V8h1c.3 0 .6-.1.8-.3.4-.4.3-1-.1-1.4l-7-6C8.3 0 7.8 0 7.4.3l-7 6c-.4.4-.5 1-.1 1.4.1.2.4.3.7.3h1v7c0 .6.4 1 1 1h2c.6 0 1-.4 1-1v-3h4v3c0 .6.4 1 1 1Z"/></g><defs><clipPath id="a"><path fill="#fff" d="M0 0h16v16H0z"/></clipPath></defs></svg>
